X: 18
T:Miss Carroll's Hornpipe (#323)
M:4/4
L:1/8
S:O'Farrell's National Irish Music 1797
R:Hornpipe
K:D
(3ABc|dAFA BGEG|FAdf dcBA|Bdgf edcB|ceAA A3 G|
FAdf dAGF|GBef gedc|(3def af bgec|d2 de d2:|
|:A2|dgba gfed|ceag fedc|Bdgf edcd|B2 BB B3 c|
d2 df dAGF|egfa gedc|(3def af bgec|d2 de d2:||

